src/images/github.svg

<svg width="32" height="32" xmlns="http://www.w3.org/2000/svg"><path d="M16 .395c-8.836 0-16 7.163-16 16 0 7.069 4.585 13.067 10.942 15.182.8.148 1.094-.347 1.094-.77 0-.381-.015-1.642-.022-2.979-4.452.968-5.391-1.888-5.391-1.888-.728-1.849-1.776-2.341-1.776-2.341-1.452-.993.11-.973.11-.973 1.606.113 2.452 1.649 2.452 1.649 1.427 2.446 3.743 1.739 4.656 1.33.143-1.034.558-1.74 1.016-2.14-3.554-.404-7.29-1.777-7.29-7.907 0-1.747.625-3.174 1.649-4.295-.166-.403-.714-2.03.155-4.234 0 0 1.344-.43 4.401 1.64a15.353 15.353 0 0 1 4.005-.539c1.359.006 2.729.184 4.008.539 3.054-2.07 4.395-1.64 4.395-1.64.871 2.204.323 3.831.157 4.234 1.026 1.12 1.647 2.548 1.647 4.295 0 6.145-3.743 7.498-7.306 7.895.574.497 1.085 1.47 1.085 2.963 0 2.141-.019 3.864-.019 4.391 0 .426.288.925 1.099.768C27.421 29.457 32 23.462 32 16.395c0-8.837-7.164-16-16-16z" fill="#000" fill-rule="nonzero"/></svg>

<?xml version="1.0" encoding="UTF-8"?>
<svg width="32px" height="32px" viewBox="0 0 32 32" version="1.1" xmlns="http://www.w3.org/2000/svg" xmlns:xlink="http://www.w3.org/1999/xlink">
    <!-- Generator: Sketch 51.3 (57544) - http://www.bohemiancoding.com/sketch -->
    <title>github</title>
    <desc>Created with Sketch.</desc>
    <defs></defs>
    <g id="Welcome" stroke="none" stroke-width="1" fill="none" fill-rule="evenodd">
        <g id="Desktop-HD" transform="translate(-772.000000, -1581.000000)" fill="#000000" fill-rule="nonzero">
            <g id="Group-3" transform="translate(0.000000, 587.000000)">
                <g id="github" transform="translate(772.000000, 994.000000)">
                    <path d="M16,0.395 C7.164,0.395 0,7.558 0,16.395 C0,23.464 4.585,29.462 10.942,31.577 C11.742,31.725 12.036,31.23 12.036,30.807 C12.036,30.426 12.021,29.165 12.014,27.828 C7.562,28.796 6.623,25.94 6.623,25.94 C5.895,24.091 4.847,23.599 4.847,23.599 C3.395,22.606 4.957,22.626 4.957,22.626 C6.563,22.739 7.409,24.275 7.409,24.275 C8.836,26.721 11.152,26.014 12.065,25.605 C12.208,24.571 12.623,23.865 13.081,23.465 C9.527,23.061 5.791,21.688 5.791,15.558 C5.791,13.811 6.416,12.384 7.44,11.263 C7.274,10.86 6.726,9.233 7.595,7.029 C7.595,7.029 8.939,6.599 11.996,8.669 C13.272,8.314 14.641,8.137 16.001,8.13 C17.36,8.136 18.73,8.314 20.009,8.669 C23.063,6.599 24.404,7.029 24.404,7.029 C25.275,9.233 24.727,10.86 24.561,11.263 C25.587,12.383 26.208,13.811 26.208,15.558 C26.208,21.703 22.465,23.056 18.902,23.453 C19.476,23.95 19.987,24.923 19.987,26.416 C19.987,28.557 19.968,30.28 19.968,30.807 C19.968,31.233 20.256,31.732 21.067,31.575 C27.421,29.457 32,23.462 32,16.395 C32,7.558 24.836,0.395 16,0.395 Z" id="Shape"></path>
                </g>
            </g>
        </g>
    </g>
</svg>
